X:1
T:DUSTY.
T:DUSTY.
T:MAY  AUFDERHEIDE.
T:Copyright 1908 by Duane Crabb Pub. Co.,
T:Copyright 1908 by Duane Crabb Pub. Co.,
T:Copyright 1908 by Duane Crabb Pub. Co.,
T:Copyright 1908 by Duane Crabb Pub. Co.,
C:MAY  AUFDERHEIDE.
Z:Copyright 1908 by Duane Crabb Pub. Co.,
%%score { ( 1 3 ) | 2 }
L:1/8
Q:1/4=100
M:2/4
K:C
V:1 treble nm="Piano" snm="Pno."
V:3 treble 
V:2 bass 
V:1
"^Moderato."!f! [cc']/e/g/[Bb]/- [Bb]/e/[A^da] | [Geg]4 | z !>![GBdg]2 !>![G_B^cg] | %3
 !>![GBdg] z !>![GBdfg] z |:!mf! [cc']/e/g/[Bb]/- [Bb]/e/[Aa] | [Gg]/B/d/[Ff]/- [Ff]/B/[Ee] | %6
 [Ee]/^F/A/[Dd]/- [Dd]/^c/[Dd] | [Ee]/^F/A/[Dd]/- [Dd]/^c/[Dd] | [Ee]/G/B/[Fd]/- [Fd]/^c/[Fd] | %9
 [Ee]/G/B/[Fd]/- [Fd]/^c/[Fd] | [CEGc] [cegc']2 [c^d^fa] | [ceg] z [GBdfg] z | %12
!8va(! [c'c'']/e'/g'/[bb']/- [bb']/e'/[aa'] | [gg']/b/d'/[ff']/- [ff']/b/[ee'] | %14
 [ee']/^f/a/[dd']/- [dd']/^c'/[dd'] | [ee']/^f/a/[dd']/- [dd']/^c'/[dd']!8va)! | %16
 z/ C/_E/^F/ z/ c/_e/^f/ | z/ c'/_e'/^f'/ z/ f'/e'/c'/ | [G,B,FG] [GBfg]2 [GBe] |1 %19
 [EGc] z [GBdfg] z :|2 [EGc] z [cegc'] z |:!f! z/ [GBdg]^f/ [GBdg]/f/[GBdf]/^d/ | %22
 z/ [Gce]^d/ [Gce]2 | z/ [^GBe]^d/ [GBe]/d/[GBe]/B/ | z/ [EAc]B/ [EAc]2 | %25
 z/ [FAd]^c/ [FAd]/^c/[FAd]/^d/ | z/ [Gce]^d/ [Gce]2 | z/ [^Fce]^d/ [Fce]/d/[Fce]/^f/ | %28
 z/ [GBg]^f/ [GBg]2 |!f! z/ [GBdg]^f/ [GBdg]/f/[GBdf]/^d/ | z/ [Gce]^d/ [Gce]2 | %31
 z/ [^GBe]^d/ [GBe]/d/[GBe]/B/ | z/ [EAc]B/ [EAc]2 | z/ [FAd]^c/ [FAd]/^c/[FAd]/^d/ | %34
 z/ [Gce]^d/ [Gce]2 | z [^Fce]2 [=FGBd] |1 [CEGc] z [cegc'] z :|2 [CEGc]2 G2 || %38
[M:2/4]!mf! [G,F]/^G,/A,/[B,F]/- [B,F]/^A,/[B,F]/C/ | [B,F]_B,/A,/- A,_A, | %40
 [G,E]/^G,/A,/[B,E]/- [B,E]/A,/[B,E]/A,/ | [B,E]B,/A,/- A,[A,CE] | D<E A,2 | D<E G,2 | %44
 [E,G,C] [C_E^FA]2 [CEFAc] | [C_E^FA]/GE/ CA, | [G,F]/^G,/A,/[B,F]/- [B,F]/^A,/[B,F]/C/ | %47
 [B,F]_B,/A,/- A,_A, | [G,E]/^G,/A,/[B,E]/- [B,E]/A,/[B,E]/A,/ | [B,E]B,/A,/- A,[A,CE] | D<E A,2 | %51
 D<E G,2 | z/ C/E/c/ z/ c/e/c'/ | c[GBg] [cec']/B/A/_A/ ||!ff! [Gf]/^G/A/[Bf]/- [Bf]/^A/[Bf]/c/ | %55
 [Bf]_B/A/- A_A | [Ge]/^G/A/[Be]/- [Be]/A/[Be]/A/ | [Be]B/A/- A[Ace] | d<e A2 | d<e G2 | %60
 [EGc] [c_e^fa]2 [cefac'] | [ce^fa]/ge/ cA | [Gf]/^G/A/[Bf]/- [Bf]/^A/[Bf]/c/ | [Bf]_B/A/- A_A | %64
 [Ge]/^G/A/[Be]/- [Be]/A/[Be]/A/ | [Be]B/A/- A[Ace] | d<e A2 | d<e G2 | z/ C/E/c/ z/ c/e/c'/ | %69
 c[GBg] [cec'] z |] %70
V:2
 z4 | z/ A,G,/ E,/C,/B,,/A,,/ | G,, !>![G,B,DF]2 !>![G,_B,^CE] | !>![G,=B,DF] z !>![G,B,DF] z |: %4
 [C,,C,][E,G,CE] [G,,,G,,][G,CE] | [C,,C,][G,CE] [A,,,A,,][G,A,^C] | %6
 [A,,,A,,][D,^F,C] [D,,D,][D,F,C] | [A,,,A,,][D,^F,C] [D,,D,][D,F,C] | %8
 [G,,,G,,][G,B,D] [D,,D,][G,B,D] | [G,,,G,,][G,B,D] [D,,D,][G,B,D] | [C,E,G,] [CEG]2 [C^D^FA] | %11
 [CEG] z [G,B,DF] z | [C,,C,][E,G,CE] [G,,,G,,][G,CE] | [C,,C,][G,CE] [A,,,A,,][G,A,^C] | %14
 [A,,,A,,][D,^F,C] [D,,D,][D,F,C] | [A,,,A,,][D,^F,C] [D,,D,][D,F,C] | %16
[K:treble] !>!A,/ z/ z !>!^F/ z/ z | !>!A/ z/ z !>!a/ z/ z | %18
[K:bass] [G,,B,,D,F,] [G,B,DF]2 [G,B,DF] |1 [C,C] z [G,,B,,D,F,] z :|2 [C,C] z [C,C][^C,^C] |: %21
 [D,D][G,B,DF] [G,,G,][G,B,DF] | [C,C] [G,CE]2 [_E,,_E,] | [=E,,=E,][^G,B,E] [B,,B,][^G,B,E] | %24
 [A,,A,] [E,A,C]2 [G,,G,] | [F,,F,][F,A,D] [A,,A,][^G,,^G,] | [=G,,=G,][G,CE] z [^G,,^G,] | %27
 [A,,A,][^F,CE] [D,D][F,CE] | [G,,G,][G,B,E] z [^C,^C] | [D,D][G,B,DF] [G,,G,][G,B,DF] | %30
 [C,C][G,CE] z [^D,^D] | [E,E][^G,B,E] [B,,B,][^G,B,E] | [A,,A,][E,A,C] z [G,,G,] | %33
 [F,,F,][F,A,D] [A,,A,][_A,,_A,] | [G,,G,][G,CE] z [^G,,^G,] | [A,,A,]3 [B,,B,] |1 %36
 [C,C]2 [C,C][^C,^C] :|2 [C,C]4 ||[M:2/4] [D,,D,]2 [G,,,G,,]2 | [D,,D,]2 [G,,,G,,]2 | %40
 [C,,C,]2 [G,,,G,,]2 | [C,,C,]2 [G,,,G,,]2 | [A,,,A,,]3 [_A,,,_A,,] | [G,,,G,,]3 G,,, | %44
 [C,,G,,C,] [C,_E,^F,A,]2 [C,E,F,A,] | [C,E,G,]4 | [D,,D,]2 [G,,,G,,]2 | [D,,D,]2 [G,,,G,,]2 | %48
 [C,,C,]2 [G,,,G,,]2 | [C,,C,]2 [G,,,G,,]2 | [A,,,A,,]3 [_A,,,_A,,] | [G,,,G,,]3 G,,, | %52
 [C,,G,,C,]2 [C,G,C]2 | C,[G,,G,] [C,C]2 || [D,D][G,B,D] [G,,G,][G,B,D] | %55
 [D,D][G,B,D] [G,,G,][G,B,D] | [C,C][G,CE] [G,,G,][G,CE] | [C,C][G,CE] [G,,G,][G,CE] | %58
 [A,,A,]3 [_A,,_A,] | [G,,G,]3 G,, | [C,G,C] [C,_E,^F,A,]2 [C,E,F,A,] | [C,E,G,]4 | %62
 [D,D][G,B,D] [G,,G,][G,B,D] | [D,D][G,B,D] [G,,G,][G,B,D] | [C,C][G,CE] [G,,G,][G,CE] | %65
 [C,C][G,CE] [G,,G,][G,CE] | [A,,A,]3 [_A,,_A,] | [G,,G,]3 G,, | [C,,G,,C,]2 [C,G,C]2 | %69
 C,[G,,G,] [C,C] z |] %70
V:3
 x4 | x4 | x4 | x4 |: x4 | x4 | x4 | x4 | x4 | x4 | x4 | x4 |!8va(! x4 | x4 | x4 | x4!8va)! | x4 | %17
 x4 | x4 |1 x4 :|2 x4 |: x4 | x4 | x4 | x4 | x4 | x4 | x4 | x4 | x4 | x4 | x4 | x4 | x4 | x4 | %35
 x4 |1 x4 :|2 x4 ||[M:2/4] x4 | x4 | x4 | x4 | ^F,4 | =F,4 | x4 | x4 | x4 | x4 | x4 | x4 | ^F,4 | %51
 =F,4 | x4 | x4 || x4 | x4 | x4 | x4 | ^F4 | =F4 | x4 | x4 | x4 | x4 | x4 | x4 | ^F4 | =F4 | x4 | %69
 x4 |] %70

